X:1
%
T:Lads a Bunchum [1]
L:1/8
M:2/2
S:Adderbury
K:F
A3B ABcd|B2G2G2AB|c2c2 cBAG|1 F2F2F4:|2 F2F2F2||
|:fe|d2c2c2 FG|A2A2A2 fe|d2c2 B2A2|1 G2F2F2:|2 G2F2F4||

